app/component-library/components/Icons/Icon/assets/flash-slash.svg

<svg width="24" height="24" viewBox="0 0 24 24" fill="none" xmlns="http://www.w3.org/2000/svg">
<path d="M22.0511 2.23002C21.7511 1.93002 21.2611 1.93002 20.9611 2.23002L2.51113 20.69C2.21113 20.99 2.21113 21.48 2.51113 21.78C2.66113 21.92 2.85113 22 3.05113 22C3.25113 22 3.44113 21.92 3.59113 21.77L22.0511 3.31002C22.3611 3.01002 22.3611 2.53002 22.0511 2.23002Z" fill="currentColor"/>
<path d="M15.1011 3.52002V9.18002L9.46113 14.82V13.28H6.37113C4.97113 13.28 4.58113 12.42 5.51113 11.37L13.0811 2.76002C14.1911 1.50002 15.1011 1.84002 15.1011 3.52002Z" fill="currentColor"/>
<path d="M19.0511 12.63L11.4811 21.24C10.3711 22.5 9.46113 22.16 9.46113 20.48V17.82L16.5611 10.72H18.1911C19.5911 10.72 19.9811 11.58 19.0511 12.63Z" fill="currentColor"/>
</svg>

<svg xmlns="http://www.w3.org/2000/svg" width="24" height="24" viewBox="0 0 24 24" fill="none"><path d="M22.051 2.23c-.3-.3-.79-.3-1.09 0L2.511 20.69c-.3.3-.3.79 0 1.09a.758.758 0 0 0 1.08-.01l18.46-18.46c.31-.3.31-.78 0-1.08z" fill="currentColor"/><path d="M15.101 3.52v5.66l-5.64 5.64v-1.54h-3.09c-1.4 0-1.79-.86-.86-1.91l7.57-8.61c1.11-1.26 2.02-.92 2.02.76zM19.051 12.63l-7.57 8.61c-1.11 1.26-2.02.92-2.02-.76v-2.66l7.1-7.1h1.63c1.4 0 1.79.86.86 1.91z" fill="currentColor"/></svg>
